!!!COM: Schubert, Franz
!!!CNT: Deutscher
!!!TXO: Deutsch
!!!LYR: Friedrich Schlegel
!!!OTL: "Der Wanderer"
!!!OPS: Op. 65
!!!ONM: No. 2
!!!ODT: 1819/
!!NB: Vocal melody only encoded.
!!NB: Original key
**kern	**silbe
*clefG2	*
*k[f#c#]	*
*M4/4	*
*MM[Langsam]	*
=2	=2
2r	.
4r	.
8r	.
{8a	{Wie
=3	=3
8dd	deut-
16dd	-lich
16dd	des
8cc#	Mon-
8cc#	-des
4b	Licht
8cc#	zu
8a	mir
=4	=4
4dd}	spricht,}
8r	.
{16cc#	{mich
16cc#	be-
8.a	-see-
16a	-lend
8cc#	zu
8a	der
=5	=5
8dd	Rei-
8dd}	-se:}
4r	.
4r	.
{8.f#	{"Fol-
16g	-ge
=6	=6
8.a	treu
16a	dem
8f#	al-
8d	-ten
8a	Glei-
8a	-se,
8.f#	wa2h-
16g#	-le
=7	=7
8.a	kei-
16b	-ne
8cc#	Hei-
8cc#	-mat
4f#}	night.}
{8.g	{Ew'-
16g	-ge
=8	=8
8.f#	Pla-
16f#	-ge
8e	brin-
8a	-gen
4d	sonst
4fn	die
=9	=9
4.b-	schwe-
8b-	-ren
8a	Ta-
8a}	-ge;}
4r	.
=10	=10
1r	.
=11	=11
{8.f#	{fort
16f#	zu
8g	an-
8g#	-dern
8a	sollst
8a#	du
8b	wech-
8cc#	-seln,
=12	=12
8dd	sollst
8a	du
8b	wan-
8f#	-dern,
8g	leicht
8d	ent-
8c#	-flie-
8d	-hend
=13	=13
4g	je-
4b-	-der
2a	Kla-
=14	=14
4d}	-ge."}
4r	.
2r	.
=15	=15
2r	.
4r	.
{12a	{Sanf-
12b	|
12cc#	-te
=16	=16
8.dd	Ebb'
16dd	und
8cc#	ho-
8cc#	-he
4b	Flut
8cc#	tief
8a	im
=17	=17
4dd	Mut,
8.cc#	wandr'
16cc#	ich
8.b	so
16b	im
8cc#	Dun-
8a	-keln
=18	=18
8dd	wei-
8dd}	-ter,}
4r	.
4r	.
{8.f#	{stei-
16g	-ge
=19	=19
8a	mu-
8a	-tig,
8.f#	sin-
16d	-ge
8a	hei-
8a	-ter,
8.f#	und
16g#	die
=20	=20
8.a	Welt
16b	er-
8.cc#	-scheint
16cc#	mir
4f#}	gut.}
{8.g	{Al-
16g	-les
=21	=21
8f#	rei-
8f#	-ne
8e	seh'
8a	ich
4d	mild
8r	.
8f#	im
=22	=22
4.b	Wi-
ddq	-der-
8cc#	|
8b	-schei-
8a}	-ne,}
4r	.
=23	=23
{8.f#	{nichts
16f#	ver-
8g	-wor-
8g#	-ren
8a	in
8a#	des
8b	Ta-
8cc#	-ges
=24	=24
8dd	Flut
8a	ver-
8b	-dor-
8f#	-ren:
8g	froh
8d	um-
8c#	-ge-
8d	-ben,
=25	=25
4g	doch
4b-	al-
2a	-lei-
=26	=26
4d}	-ne.}
4r	.
2r	.
==	==
*-	*-